!! 00026] TT[TB
!! Eigene Aufnahme, Guangzhou, 5.5.87
!!!OTL: Yaolan qu
!!!ARE: Asia, China,ˇbei Dongbei, Nordosten
!! Ethnic Group: Han
!! MM, S. 368 , Quelle S. Bandprotokoll)
!!!SCT: C0961
!!!YEM: Copyright 1995, estate of Helmut Schaffrath.
**kern
*ICvox
*Ivox
*M2/4
*k[b-]
*F:
{8f
8f
8.f
16d
=1
8c
8f
4f
=2
8cc
16dd
16ff
16dd
16cc
8a
=3
16cc
16a
8g
4g}
=4
{8g
8cc
4cc
=5
8g
16a
16g
4f
=6
16f
16d
16a
16a
16g
16f
16f
16d
=7
8c
4.c}
=8
{16d
16f
16c
16d
8.f
16g
=9
16a
16g
16f
16g
8.cc
16a
=10
8g
8a
8a
16c
16d
=11
8g
8e
4d}
=12
{16dd
16cc
16a
16cc
8.dd
16cc
=13
16dd
16cc
16a
16dd
4cc
=14
16a
16cc
16a
16g
16f
16d
16f
16d
=15
8cc
16a
16g
16g
16f
8d
=16
2c}
==
!!!AGN: Xiaodiao, MengjiangnÅ diao. Muqin hong haizi shueijiao
!! Die Saengerin Lei Huilan ist Angehoerige der Zhuang Minderheit und
!!    studiert an der Guangzhouer Musikhochschule.
!!    Aufgenommen am 5.5.87
!!    Kodiert von Wang Sen. - In der Kopie ist die Wiederholung der Phrasen
!!    1-4 notiert! ??
!!!ONB: ESAC (Essen Associative Code) Database: CHINA
!!!AMT: simple duple
!!!AIN: vox
!!!EED: Helmut Schaffrath
!!!EEV: 1.0
*-
